src/22/panel/hexchat-highlight.svg

<svg xmlns="http://www.w3.org/2000/svg" width="22" height="22" version="1.1">
 <defs>
  <style id="current-color-scheme" type="text/css">
   .ColorScheme-Text { color:#dfdfdf; } .ColorScheme-Highlight { color:#4285f4; }
  </style>
 </defs>
 <g>
  <path style="fill:currentColor" class="ColorScheme-Text" d="M 6.5085981,4.0004733 C 6.1489137,4.0001918 5.8163031,4.18985 5.6356835,4.4982188 L 2.1362503,10.497381 c -0.1816671,0.310332 -0.1816671,0.693379 0,1.003711 L 5.6356835,17.4999 C 5.8162125,17.808405 6.1488401,18.000208 6.5085981,18 l 6.9868599,0 c 0.359125,-4.18e-4 0.690932,-0.192137 0.871143,-0.5001 l 3.497327,-5.998808 c 0.181667,-0.310332 0.181667,-0.693379 0,-1.003711 L 14.366601,4.4982188 C 14.186299,4.1903924 13.85451,4.0008176 13.495458,4.0004733 Z m 6.1142639,1.9996264 c 0.257517,-1.037e-4 0.497396,0.1235124 0.636618,0.3280657 l 0,0.00195 -3.257487,3.255365 L 6.744859,6.3279925 C 6.877544,6.1325547 7.1025553,6.0102056 7.3481762,5.999941 Z M 5.6708268,8.0817744 8.5882181,10.999166 5.6708268,13.916911 4.104611,11.358747 c -0.1369379,-0.222096 -0.1369379,-0.496535 0,-0.718631 L 5.6707205,8.0819869 Z m 8.6625442,0 1.566109,2.5581286 c 0.136938,0.222096 0.136938,0.496535 0,0.718631 l -1.566216,2.558519 -2.917391,-2.917746 2.917391,-2.9173909 z m -4.331272,4.3312726 3.255362,3.255362 c -0.138354,0.20474 -0.377422,0.329058 -0.634635,0.330018 l -5.2413841,0 c -0.2575141,1.07e-4 -0.497393,-0.123504 -0.6366183,-0.328052 l 3.2571334,-3.257488 z"/>
  <path style="fill:currentColor" class="ColorScheme-Highlight" d="M 16.54,4.0004988 C 16.109553,4 15.862066,4.4652387 16.080431,4.8030833 l 0.951789,1.4645661 0.947077,1.4645662 c 0.232394,0.3570455 0.811247,0.3570455 1.043641,0 L 19.974409,6.2677203 20.921272,4.803225 C 21.149099,4.4460577 20.860852,4.0019147 20.399646,4 Z"/>
 </g>
</svg>

<svg width="22" height="22" version="1.1" xmlns="http://www.w3.org/2000/svg">
 <g>
  <path d="M6.509 4c-.36 0-.693.19-.873.498l-3.5 6a.992.992 0 0 0 0 1.003l3.5 5.999c.18.308.513.5.873.5h6.986c.36 0 .691-.192.872-.5l3.497-5.999a.992.992 0 0 0 0-1.004l-3.497-5.999A1.01 1.01 0 0 0 13.495 4zm6.114 2c.257 0 .497.124.636.328v.002l-3.257 3.255-3.257-3.257A.766.766 0 0 1 7.348 6zM5.67 8.082l2.917 2.917-2.917 2.918-1.566-2.558a.68.68 0 0 1 0-.719L5.67 8.082zm8.662 0L15.9 10.64a.68.68 0 0 1 0 .719l-1.566 2.558L11.416 11l2.917-2.917zm-4.33 4.331l3.254 3.255a.768.768 0 0 1-.634.33H7.38a.768.768 0 0 1-.636-.328l3.257-3.257z" color="#bebebe" fill="#bebebe"/>
  <path d="M16.54 4c-.43 0-.678.465-.46.803l.952 1.465.947 1.464c.233.357.812.357 1.044 0l.951-1.464.947-1.465c.228-.357-.06-.801-.521-.803z" color="#5294e2" fill="#5294e2"/>
 </g>
</svg>
